svgs/sharp-solid/square-h.svg

<svg xmlns="http://www.w3.org/2000/svg" viewBox="0 0 448 512"><!--! Font Awesome Pro 6.6.0 by @fontawesome - https://fontawesome.com License - https://fontawesome.com/license (Commercial License) Copyright 2024 Fonticons, Inc. --><path d="M448 32L0 32 0 480l448 0 0-448zM336 152l0 104 0 104 0 24-48 0 0-24 0-80-128 0 0 80 0 24-48 0 0-24 0-80 0-48 0-80 0-24 48 0 0 24 0 80 128 0 0-80 0-24 48 0 0 24z"/></svg>

<svg xmlns="http://www.w3.org/2000/svg" viewBox="0 0 448 512"><!--! Font Awesome Pro 6.4.2 by @fontawesome - https://fontawesome.com License - https://fontawesome.com/license (Commercial License) Copyright 2023 Fonticons, Inc. --><path d="M448 32H0V480H448V32zM336 152V256 360v24H288V360 280H160l0 80v24H112V360 280l0-48V152 128h48v24 80H288V152 128h48v24z"/></svg>
